X:1
T:True Love
T:True Love
T:Bing Crosby, Grace Kelly
C:Bing Crosby, Grace Kelly
L:1/8
Q:1/4=80
M:3/4
K:E
V:1 treble nm="Piano" snm="Pno."
V:1
"E" B,2 E4 |"B7" B,2 F4 |"E" B,G G2 GA |"B7" G>F F4 |"E" B,2"E7" E4 |"A" (3C^B,C"Am" A4 | %6
w: Sun tanned,|wind blown,|ho- ney- moo- ners at|last a- lone,|Fee- ling|far a- bove par,|
"E" G4 G2 |"F#" GF z2 z E |"F#m" F6- |"B" F4[Q:1/4=120]"^\n" B,B, |"E" B,4 E2 |"A" E4 DC | %12
w: oh, how|lu- cky we|are,|* While I|give to|you and you|
"Edim" ^A,4 C2 |"E" B,6 |"B" B,6 |"B7" A,6 |"B9" C6 |"E" B,4 B,2 |"E" B,4 E2 |"A" E4 DC | %20
w: give to|me,|true|love,|true|love, So|on and|on it will|
"Edim" ^A,4 C2 |"E" B,6 |"B" B,6 |"B7" A,6 |"A" F6 |"E" E4 E2 |"Am" E4 =G2 |"D7" =G4 FE | %28
w: al- ways|be,|true|love,|true|love, For|you and|I have a|
"G" =D4 F2 |"E7" F E2 z =D2 |"Am" =C4 E2 |"D7" E =D2 z =C"B7"B,- | B,6- | B,4 B,B, |"E" B,4 E2 | %35
w: guar- dian|an- gel on|high with|no- thing to do,||* But to|give to|
"A" E4 DC |"Edim" ^A,4 C2 |"E" B,6 |"F#m" F4 G2 |"B" A D4 z |"E" E6- | E6 |] %42
w: you and to|give to|me,|Love for-|e- ver|true.||

